public/avatar/hat/264.svg

<svg xmlns:xlink="http://www.w3.org/1999/xlink" height="92.9" width="100.7" xmlns="http://www.w3.org/2000/svg"><use height="30.3" transform="translate(17 39.35)" width="42.8" xlink:href="#a"/><defs><g id="a" fill-rule="evenodd"><path d="m-7.95 9.65-.75 1.3-.45 1.55.75.7 1.2.05.7-1.05q.95 1.1.75 2.45Q-6.9 18.9-11 18.5l-2.3-.75q.2.35-1.55 1.5-1.2.8-2.95.6-1.55-.15-2.2-.85-.45-.5-.3-1.6l.25-1 .7.75q.25.15.6-.6.1-.15-.1-.7-.15-.55-.4-.6-1.35-.4-2.1-2.25-.9-2.7.8-4.6Q-19 6.65-16.8 6.8q2.15.2 1.9 1.4-.1.45-1.95.9l.05-.75-.75 1q-.25.8 1.65 1.6.5.2 1.9-1 3.35-2.8 6.05-.3" fill="#512702" transform="translate(21.65 10.4)"/><path d="M-6.4 8.7q-1.45-.15-2.85 2.2-.9 1.55.05 2.5.75.75 1.75.75.85 0 .9-.75.8.85-1.1 3.25-3.45 3.2-5.45-.65-2.4 4-5.6 2.95-1.6-.55-1.2-1.9l.25.5q.4.65 1.25-.75.25-.4-.1-1.3l-.45-.85q-1.3-.55-1.9-2.35-.55-1.65.7-3.3 1.3-1.7 3.4-1.65 3 .05.2 1.3 1.5-.9-.55-.5-1.45.3-1.15 1.3.25.95 1.65 1.9 1.1.7 2.25-.2l1.2-1.3q2-1.85 6.75-1.15" fill="#f98506" transform="translate(21.65 10.4)"/><path d="M17.3 10.5q.7-.05 1.85.5 1.55.8 1.85 2.3.65 3-1.85 4.3-1.1.6-2.8.5-1.65-.05-2.25-.7-.9-1.05-.75-2.7.3-1.9 2.95-1.6 1.45.15 1.45-.9 0-.4-1.2-1.7h.75" fill="#512702" transform="translate(21.65 10.4)"/><path d="M18.2 12.85q.5-1-.75-1.8 2.6.65 3 2.5.4 1.5-.6 2.65-.75.9-2.35 1.2l-2.6-.2q-1.75-.8-.95-3.5l.8-.5.75-.15q.7.7 1.6.55.75-.1 1.1-.75" fill="#f98506" transform="translate(21.65 10.4)"/><path d="M19.75 13q1.15.8.2 2.55-.7 1.2-2.5 1.5-1.6.3-2.35-.3l-1.05-2.2.95-.45.35.8q.55.65 2.2.9 2.65.4 2.2-2.8" fill="#f7a92b" transform="translate(21.65 10.4)"/><path d="M-5.4-7.7Q1.2-10 4.3-8.75q5.9 2.35 7.1 3.45l3 3.6q2 2.7 2.25 3.55.4 1.25.1 4.6-.25 3.2-.65 3.65l-.6.4.95 1.3q.6 1-.3 1.8-2 2.15-4.65 1.95-3.75-.3-8.8-2.35l-8.25-2.95q-1.6-.65-2.15-.45l-2.85.75q-2.4 1.7-2.9 1.05-1.45-1.75-.75-2.55.9-.95.65-1.1-1-.6-.4-5.5.35-2.6 3.95-6.8Q-7.9-6.9-5.4-7.7" fill="#3d033a" transform="translate(21.65 10.4)"/><path d="M15.9 12.15q.1.6-2.3 2-2.5 1.45-7.1-.65-10.7-4.3-13-4.35-5.35 1.4-4.85.8 2.55-3.3 10.15-4.8 4.35-.85 9.3.65 3.55 1.05 4.55 1.95l1.8 2.2 1.45 2.2" fill="#ad0083" transform="translate(21.65 10.4)"/><path d="M4.05-7.9q1.45.35 5.2 2.15 2.6 1.2 5.7 6.55 1.25 2.2.9 5.45-.5 4.9-1.75 3.5Q13.15 8.6 10.3 7q-1.1-.65-4.35-1.25L.1 5.25q-3.95.2-8.75 2.15-2.8 3.2-3.8 3.3-.75.05-1-.5-.3-.6.05-1.25l.3-1.55q-.65-.9-.35-4.15.2-1.9 3.7-6.9 1.2-1.8 4.9-3.4 4.7-1.8 8.9-.85" fill="#dd0eac" transform="translate(21.65 10.4)"/><path d="m5.6-9.85.95.8.65 1.15q.3 1.3-.05 1.35L-4.5-7.6l.35-.65.35-.6 1.05-.8L-1.7-10l1.8-.35q2.15-.15 4.05.05l1.45.45" fill="#63035a" transform="translate(21.65 10.4)"/><path d="M6.25-7.9q.95.6.75 2.4-.15 1.55-1.85 1.85-1.8.35-3.35.05-2.3-.45-4.2-1.95l-.85-1.2q-.25-.8.4-1.35l9.1.2" fill="#b70495" transform="translate(21.65 10.4)"/><path d="M6.35-8.55Q7.7-6.35 5.7-4.9q-2.6 1.85-6.3 0l-1.6-.95-.8-1q-.55-1.35.2-1.5.25-.9 1-1.05l2.4-.45 3.6.15q1.7.45 2.15 1.15" fill="#dd0eac" transform="translate(21.65 10.4)"/><path d="M-9.55-3Q-7.9-5.25-3.6-7.35-10.9-2.1-12.65 6.9q-.35.15-.6-2.1-.2-2.3 3.7-7.8" fill="#f43bd2" transform="translate(21.65 10.4)"/><path d="m.55-9.1 2.15-.05v.05l.55.6q.2.35-.2.75-.4.55-1.9.9l-2.5-.05q-.8-.45-.75-.95l.6-.75q.75-.5 2.05-.5" fill="#fc5ee5" transform="translate(21.65 10.4)"/><path d="m.35-8.8.55.35q.2.35-.35.65l-1.85-.1q-.5-.9 1.65-.9" fill="#fca7f4" transform="translate(21.65 10.4)"/><path d="M-3.65-7.35Q-7.9-4.3-9.9-2.3l-.2.2.6-.8q1.65-2.25 5.85-4.45" fill="#f982ee" transform="translate(21.65 10.4)"/><path d="M4.95 6.1q3 .45 9.95 7.2-1.8 1.35-3.25 1.35-.85-3.65-17.4-7.7 5.3-1.75 10.7-.85" fill="#ce06a9" transform="translate(21.65 10.4)"/><path d="M13.6 14.15q-1.5-3.35-15.75-8l4.2-.25q4.85.45 12.45 7.75l-.9.5" fill="#f43bd2" transform="translate(21.65 10.4)"/><path d="M12.1-.4q-1.95-4.35-3.7-5.75l2.7 1.8q4.2 4.4 4.75 7.05.3 1.55 0 4.05-.3 2.6-.95 3.25-.15.5-.75.15l-2.25-1.8q-3.75-2-5.2-2.1l3.55.6 2.75.1q1.4-2.3-.9-7.35" fill="#b70495" transform="translate(21.65 10.4)"/><path d="m-10.05 10.15 1-.1q-2 3.3-3.8 3.3 1.2-.7 2.8-3.2m-2.6 4.2q1.75-1.6 2-.7v.15q.45 2.35 3.35.85-.4 1.45-2.55 2.2-1.65.6-2.8-2.5m-4.8-.05q-1.35 0-2.05-.7-1.15-1.1-.7-3.3l1.45-1.8q-.5.6-.25 1.75.2 1.2 1.15 1.9 1.2.9 3.55-.25.5.6-.8 1.65-1 .75-2.35.75m-1.75 3.8q2.05-.25 2.2-1.75l.25-1.4q.9.05 2.9-1.2l.25 1.6q0 .9-1.7 2.45-1.15 1.05-3.9.3" fill="#f7a92b" transform="translate(21.65 10.4)"/><path d="m-11.85 15.9 1.5-1.3 1.25.5q.25 1.4.05 1.5-1.5.75-2.3 0l-.5-.7m-5.1-.1q3.1-.85 3.25-1.05l-.65 2.05q-2.95 1.05-2.95.45.3-.3.35-1.45m-3.3-4.35 1.4-.6q.75 1.7 1.95 1.65v1.75q-2.05.35-2.6-.65l-.75-2.15m9.05.3.75-.9.6.3-.85.9-.5-.3m25.9 4.35 1.05-.9 2.2.65q.5-.05.1 1l-2.6.15-.75-.9" fill="#f7d7ad" transform="translate(21.65 10.4)"/><path d="m11.65-3.9-.2-.3 2 2.6 2.05 2.95q.5.9.65 5.5 0 1.2-.5 2.4-.7 1.5-1.75.85l-3.65-2.6q3.3 1.45 4.05.65.35-.35.55-4.65 0-.95-1.2-3.7-1.2-2.65-2-3.7" fill="#9b0586" transform="translate(21.65 10.4)"/><path d="m11.15 14.65-2.1-.25L-6.5 9.15l-4.6 1 2.65-1.35q2.25-.95 2.5-.5l17.1 6.35" fill="#87006c" transform="translate(21.65 10.4)"/><path d="M11.1 14.7q3.3-.6 4.7-2.8l.15.2q.2.25-.5.85-2.65 2.25-4.35 1.75" fill="#f43bd2" transform="translate(21.65 10.4)"/><path d="M-9.2 6.95q.35-.55 5.75-1.1l2.1-.25-3.8.9q-3.3.95-3.7 1.3l-2.25 2.35q-1.15 1.1-2.05.75l-.45-.7.1-.85.4-1.6q-.05 2.15 1.3 1.65 1.1-.35 2.6-2.45" fill="#b70495" transform="translate(21.65 10.4)"/><path d="M-6.3 5.5q7.35-4.1 13.15 0Q2.3 3.85-6.3 5.5" fill="#fc5ee5" transform="translate(21.65 10.4)"/><path d="M-13.35 8.7q.45 2.6 1.6 1.3 2.6-3 4.95-3l-2.15.9q-2 2.35-2.95 2.95-1.2.75-1.75-.45l.3-1.7" fill="#9b0586" transform="translate(21.65 10.4)"/><path d="M-1.6-4.55Q-3.3 2.6-4.55 3.3q-3.05 1.7-4 .9-.4-.35 1.75-3.65 2.35-3.7 4.9-5.3l.3.2" fill="#f43bd2" transform="translate(21.65 10.4)"/><path d="m-4.55-1.55 2.3-2.3q.1.15-1.5 3.65l-.5.35L-5 .2q-.55-.25.45-1.75" fill="#f982ee" transform="translate(21.65 10.4)"/><path d="M7.2-3.75q1.05-1.65 3.7 3.6 2.6 5.25.85 6.15-.65.35-6.4-2.85-.8-.45-.8-3.2l.1-2.6Q6.9-3.3 7.2-3.75" fill="#f43bd2" transform="translate(21.65 10.4)"/><path d="M6.65 1.4 6-1.9q1.55-1.85 3.95 3.25L8.2 1.5l-1.55-.1" fill="#f982ee" transform="translate(21.65 10.4)"/></g></defs></svg>

<?xml version="1.0" encoding="UTF-8" standalone="no"?>
<svg xmlns:xlink="http://www.w3.org/1999/xlink" height="92.9px" width="100.7px" xmlns="http://www.w3.org/2000/svg">
  <g transform="matrix(1.0, 0.0, 0.0, 1.0, 38.65, 49.75)">
    <use height="30.3" transform="matrix(1.0, 0.0, 0.0, 1.0, -21.65, -10.4)" width="42.8" xlink:href="#shape0"/>
  </g>
  <defs>
    <g id="shape0" transform="matrix(1.0, 0.0, 0.0, 1.0, 21.65, 10.4)">
      <path d="M-7.95 9.65 L-8.7 10.95 -9.15 12.5 -8.4 13.2 -7.2 13.25 -6.5 12.2 Q-5.55 13.3 -5.75 14.65 -6.9 18.9 -11.0 18.5 L-13.3 17.75 Q-13.1 18.1 -14.85 19.25 -16.05 20.05 -17.8 19.85 -19.35 19.7 -20.0 19.0 -20.45 18.5 -20.3 17.4 L-20.05 16.4 -19.35 17.15 Q-19.1 17.3 -18.75 16.55 -18.65 16.4 -18.85 15.85 -19.0 15.3 -19.25 15.25 -20.6 14.85 -21.35 13.0 -22.25 10.3 -20.55 8.4 -19.0 6.65 -16.8 6.8 -14.65 7.0 -14.9 8.2 -15.0 8.65 -16.85 9.1 L-16.8 8.35 -17.55 9.35 Q-17.8 10.15 -15.9 10.95 -15.4 11.15 -14.0 9.95 -10.65 7.15 -7.95 9.65" fill="#512702" fill-rule="evenodd" stroke="none"/>
      <path d="M-6.4 8.7 Q-7.85 8.55 -9.25 10.9 -10.15 12.45 -9.2 13.4 -8.45 14.15 -7.45 14.15 -6.6 14.15 -6.55 13.4 -5.75 14.25 -7.65 16.65 -11.1 19.85 -13.1 16.0 -15.5 20.0 -18.7 18.95 -20.3 18.4 -19.9 17.05 L-19.65 17.55 Q-19.25 18.2 -18.4 16.8 -18.15 16.4 -18.5 15.5 L-18.95 14.65 Q-20.25 14.1 -20.85 12.3 -21.4 10.65 -20.15 9.0 -18.85 7.3 -16.75 7.35 -13.75 7.4 -16.55 8.65 -15.05 7.75 -17.1 8.15 -18.55 8.45 -18.25 9.45 -18.0 10.4 -16.6 11.35 -15.5 12.05 -14.35 11.15 L-13.15 9.85 Q-11.15 8.0 -6.4 8.7" fill="#f98506" fill-rule="evenodd" stroke="none"/>
      <path d="M17.3 10.5 Q18.0 10.45 19.15 11.0 20.7 11.8 21.0 13.3 21.65 16.3 19.15 17.6 18.05 18.2 16.35 18.1 14.7 18.05 14.1 17.4 13.2 16.35 13.35 14.7 13.65 12.8 16.3 13.1 17.75 13.25 17.75 12.2 17.75 11.8 16.55 10.5 L17.3 10.5" fill="#512702" fill-rule="evenodd" stroke="none"/>
      <path d="M18.2 12.85 Q18.7 11.85 17.45 11.05 20.05 11.7 20.45 13.55 20.85 15.05 19.85 16.2 19.1 17.1 17.5 17.4 L14.9 17.2 Q13.15 16.4 13.95 13.7 L14.75 13.2 15.5 13.05 Q16.2 13.75 17.1 13.6 17.85 13.5 18.2 12.85" fill="#f98506" fill-rule="evenodd" stroke="none"/>
      <path d="M19.75 13.0 Q20.9 13.8 19.95 15.55 19.25 16.75 17.45 17.05 15.85 17.35 15.1 16.75 L14.05 14.55 15.0 14.1 15.35 14.9 Q15.9 15.55 17.55 15.8 20.2 16.2 19.75 13.0" fill="#f7a92b" fill-rule="evenodd" stroke="none"/>
      <path d="M-5.4 -7.7 Q1.2 -10.0 4.3 -8.75 10.2 -6.4 11.4 -5.3 L14.4 -1.7 Q16.4 1.0 16.65 1.85 17.05 3.1 16.75 6.45 16.5 9.65 16.1 10.1 L15.5 10.5 16.45 11.8 Q17.05 12.8 16.15 13.6 14.15 15.75 11.5 15.55 7.75 15.25 2.7 13.2 L-5.55 10.25 Q-7.15 9.6 -7.7 9.8 L-10.55 10.55 Q-12.95 12.25 -13.45 11.6 -14.9 9.85 -14.2 9.05 -13.3 8.1 -13.55 7.95 -14.55 7.35 -13.95 2.45 -13.6 -0.15 -10.0 -4.35 -7.9 -6.9 -5.4 -7.7" fill="#3d033a" fill-rule="evenodd" stroke="none"/>
      <path d="M15.9 12.15 Q16.0 12.75 13.6 14.15 11.1 15.6 6.5 13.5 -4.2 9.2 -6.5 9.15 -11.85 10.55 -11.35 9.95 -8.8 6.65 -1.2 5.15 3.15 4.3 8.1 5.8 11.65 6.85 12.65 7.75 L14.45 9.95 15.9 12.15" fill="#ad0083" fill-rule="evenodd" stroke="none"/>
      <path d="M4.05 -7.9 Q5.5 -7.55 9.25 -5.75 11.85 -4.55 14.95 0.8 16.2 3.0 15.85 6.25 15.35 11.15 14.1 9.75 13.15 8.6 10.3 7.0 9.2 6.35 5.95 5.75 L0.1 5.25 Q-3.85 5.45 -8.65 7.4 -11.45 10.6 -12.45 10.7 -13.2 10.75 -13.45 10.2 -13.75 9.6 -13.4 8.95 L-13.1 7.4 Q-13.75 6.5 -13.45 3.25 -13.25 1.35 -9.75 -3.65 -8.55 -5.45 -4.85 -7.05 -0.15 -8.85 4.05 -7.9" fill="#dd0eac" fill-rule="evenodd" stroke="none"/>
      <path d="M5.6 -9.85 L6.55 -9.05 7.2 -7.9 Q7.5 -6.6 7.15 -6.55 L-4.5 -7.6 -4.15 -8.25 -3.8 -8.85 -2.75 -9.65 -1.7 -10.0 0.1 -10.35 Q2.25 -10.5 4.15 -10.3 L5.6 -9.85" fill="#63035a" fill-rule="evenodd" stroke="none"/>
      <path d="M6.25 -7.9 Q7.2 -7.3 7.0 -5.5 6.85 -3.95 5.15 -3.65 3.35 -3.3 1.8 -3.6 -0.5 -4.05 -2.4 -5.55 L-3.25 -6.75 Q-3.5 -7.55 -2.85 -8.1 L6.25 -7.9" fill="#b70495" fill-rule="evenodd" stroke="none"/>
      <path d="M6.35 -8.55 Q7.7 -6.35 5.7 -4.9 3.1 -3.05 -0.6 -4.9 L-2.2 -5.85 -3.0 -6.85 Q-3.55 -8.2 -2.8 -8.35 -2.55 -9.25 -1.8 -9.4 L0.6 -9.85 4.2 -9.7 Q5.9 -9.25 6.35 -8.55" fill="#dd0eac" fill-rule="evenodd" stroke="none"/>
      <path d="M-9.55 -3.0 Q-7.9 -5.25 -3.6 -7.35 -10.9 -2.1 -12.65 6.9 -13.0 7.05 -13.25 4.8 -13.45 2.5 -9.55 -3.0" fill="#f43bd2" fill-rule="evenodd" stroke="none"/>
      <path d="M0.55 -9.1 L2.7 -9.15 2.7 -9.1 3.25 -8.5 Q3.45 -8.15 3.05 -7.75 2.65 -7.2 1.15 -6.85 L-1.35 -6.9 Q-2.15 -7.35 -2.1 -7.85 L-1.5 -8.6 Q-0.75 -9.1 0.55 -9.1" fill="#fc5ee5" fill-rule="evenodd" stroke="none"/>
      <path d="M0.35 -8.8 L0.9 -8.45 Q1.1 -8.1 0.55 -7.8 L-1.3 -7.9 Q-1.8 -8.8 0.35 -8.8" fill="#fca7f4" fill-rule="evenodd" stroke="none"/>
      <path d="M-3.65 -7.35 Q-7.9 -4.3 -9.9 -2.3 L-10.1 -2.1 -9.5 -2.9 Q-7.85 -5.15 -3.65 -7.35" fill="#f982ee" fill-rule="evenodd" stroke="none"/>
      <path d="M4.95 6.1 Q7.95 6.55 14.9 13.3 13.1 14.65 11.65 14.65 10.8 11.0 -5.75 6.95 -0.45 5.2 4.95 6.1" fill="#ce06a9" fill-rule="evenodd" stroke="none"/>
      <path d="M13.6 14.15 Q12.1 10.8 -2.15 6.15 L2.05 5.9 Q6.9 6.35 14.5 13.65 L13.6 14.15" fill="#f43bd2" fill-rule="evenodd" stroke="none"/>
      <path d="M12.1 -0.4 Q10.15 -4.75 8.4 -6.15 L11.1 -4.35 Q15.3 0.05 15.85 2.7 16.15 4.25 15.85 6.75 15.55 9.35 14.9 10.0 14.75 10.5 14.15 10.15 L11.9 8.35 Q8.15 6.35 6.7 6.25 L10.25 6.85 13.0 6.95 Q14.4 4.65 12.1 -0.4" fill="#b70495" fill-rule="evenodd" stroke="none"/>
      <path d="M-10.05 10.15 L-9.05 10.05 Q-11.05 13.35 -12.85 13.35 -11.65 12.65 -10.05 10.15" fill="#f7a92b" fill-rule="evenodd" stroke="none"/>
      <path d="M-12.65 14.35 Q-10.9 12.75 -10.65 13.65 L-10.65 13.8 Q-10.2 16.15 -7.3 14.65 -7.7 16.1 -9.85 16.85 -11.5 17.45 -12.65 14.35" fill="#f7a92b" fill-rule="evenodd" stroke="none"/>
      <path d="M-17.45 14.3 Q-18.8 14.3 -19.5 13.6 -20.65 12.5 -20.2 10.3 L-18.75 8.5 Q-19.25 9.1 -19.0 10.25 -18.8 11.45 -17.85 12.15 -16.65 13.05 -14.3 11.9 -13.8 12.5 -15.1 13.55 -16.1 14.3 -17.45 14.3" fill="#f7a92b" fill-rule="evenodd" stroke="none"/>
      <path d="M-19.2 18.1 Q-17.15 17.85 -17.0 16.35 L-16.75 14.95 Q-15.85 15.0 -13.85 13.75 L-13.6 15.35 Q-13.6 16.25 -15.3 17.8 -16.45 18.85 -19.2 18.1" fill="#f7a92b" fill-rule="evenodd" stroke="none"/>
      <path d="M-11.85 15.9 L-10.35 14.6 -9.1 15.1 Q-8.85 16.5 -9.05 16.6 -10.55 17.35 -11.35 16.6 L-11.85 15.9" fill="#f7d7ad" fill-rule="evenodd" stroke="none"/>
      <path d="M-16.95 15.8 Q-13.85 14.95 -13.7 14.75 L-14.35 16.8 Q-17.3 17.85 -17.3 17.25 -17.0 16.95 -16.95 15.8" fill="#f7d7ad" fill-rule="evenodd" stroke="none"/>
      <path d="M-20.25 11.45 L-18.85 10.85 Q-18.1 12.55 -16.9 12.5 L-16.9 14.25 Q-18.95 14.6 -19.5 13.6 L-20.25 11.45" fill="#f7d7ad" fill-rule="evenodd" stroke="none"/>
      <path d="M-11.2 11.75 L-10.45 10.85 -9.85 11.15 -10.7 12.05 -11.2 11.75" fill="#f7d7ad" fill-rule="evenodd" stroke="none"/>
      <path d="M14.7 16.1 L15.75 15.2 17.95 15.85 Q18.45 15.8 18.05 16.85 L15.45 17.0 14.7 16.1" fill="#f7d7ad" fill-rule="evenodd" stroke="none"/>
      <path d="M11.65 -3.9 L11.45 -4.2 13.45 -1.6 15.5 1.35 Q16.0 2.25 16.15 6.85 16.15 8.05 15.65 9.25 14.95 10.75 13.9 10.1 L10.25 7.5 Q13.55 8.95 14.3 8.15 14.65 7.8 14.85 3.5 14.85 2.55 13.65 -0.2 12.45 -2.85 11.65 -3.9" fill="#9b0586" fill-rule="evenodd" stroke="none"/>
      <path d="M11.15 14.65 L9.05 14.4 -6.5 9.15 -11.1 10.15 -8.45 8.8 Q-6.2 7.85 -5.95 8.3 L11.15 14.65" fill="#87006c" fill-rule="evenodd" stroke="none"/>
      <path d="M11.1 14.7 Q14.4 14.1 15.8 11.9 L15.95 12.1 Q16.15 12.35 15.45 12.95 12.8 15.2 11.1 14.7" fill="#f43bd2" fill-rule="evenodd" stroke="none"/>
      <path d="M-9.2 6.95 Q-8.85 6.4 -3.45 5.85 L-1.35 5.6 -5.15 6.5 Q-8.45 7.45 -8.85 7.8 L-11.1 10.15 Q-12.25 11.25 -13.15 10.9 L-13.6 10.2 -13.5 9.35 -13.1 7.75 Q-13.15 9.9 -11.8 9.4 -10.7 9.05 -9.2 6.95" fill="#b70495" fill-rule="evenodd" stroke="none"/>
      <path d="M-6.3 5.5 Q1.05 1.4 6.85 5.5 2.3 3.85 -6.3 5.5" fill="#fc5ee5" fill-rule="evenodd" stroke="none"/>
      <path d="M-13.35 8.7 Q-12.9 11.3 -11.75 10.0 -9.15 7.0 -6.8 7.0 L-8.95 7.9 Q-10.95 10.25 -11.9 10.85 -13.1 11.6 -13.65 10.4 L-13.35 8.7" fill="#9b0586" fill-rule="evenodd" stroke="none"/>
      <path d="M-1.6 -4.55 Q-3.3 2.6 -4.55 3.3 -7.6 5.0 -8.55 4.2 -8.95 3.85 -6.8 0.55 -4.45 -3.15 -1.9 -4.75 L-1.6 -4.55" fill="#f43bd2" fill-rule="evenodd" stroke="none"/>
      <path d="M-4.55 -1.55 L-2.25 -3.85 Q-2.15 -3.7 -3.75 -0.2 L-4.25 0.15 -5.0 0.2 Q-5.55 -0.05 -4.55 -1.55" fill="#f982ee" fill-rule="evenodd" stroke="none"/>
      <path d="M7.2 -3.75 Q8.25 -5.4 10.9 -0.15 13.5 5.1 11.75 6.0 11.1 6.35 5.35 3.15 4.55 2.7 4.55 -0.05 L4.65 -2.65 Q6.9 -3.3 7.2 -3.75" fill="#f43bd2" fill-rule="evenodd" stroke="none"/>
      <path d="M6.65 1.4 L6.0 -1.9 Q7.55 -3.75 9.95 1.35 L8.2 1.5 6.65 1.4" fill="#f982ee" fill-rule="evenodd" stroke="none"/>
    </g>
  </defs>
</svg>
